src/assets/duotone/MedalStar.svg

<svg width="24" height="24" viewBox="0 0 24 24"  xmlns="http://www.w3.org/2000/svg">
<path opacity="0.4" d="M19 9C19 10.45 18.57 11.78 17.83 12.89C16.75 14.49 15.04 15.62 13.05 15.91C12.71 15.97 12.36 16 12 16C11.64 16 11.29 15.97 10.95 15.91C8.96 15.62 7.25 14.49 6.17 12.89C5.43 11.78 5 10.45 5 9C5 5.13 8.13 2 12 2C15.87 2 19 5.13 19 9Z" />
<path d="M21.2501 18.4704L19.6001 18.8604C19.2301 18.9504 18.9401 19.2304 18.8601 19.6004L18.5101 21.0704C18.3201 21.8704 17.3001 22.1104 16.7701 21.4804L12.0001 16.0004L7.23008 21.4904C6.70008 22.1204 5.68008 21.8804 5.49008 21.0804L5.14008 19.6104C5.05008 19.2404 4.76008 18.9504 4.40008 18.8704L2.75008 18.4804C1.99008 18.3004 1.72008 17.3504 2.27008 16.8004L6.17008 12.9004C7.25008 14.5004 8.96008 15.6304 10.9501 15.9204C11.2901 15.9804 11.6401 16.0104 12.0001 16.0104C12.3601 16.0104 12.7101 15.9804 13.0501 15.9204C15.0401 15.6304 16.7501 14.5004 17.8301 12.9004L21.7301 16.8004C22.2801 17.3404 22.0101 18.2904 21.2501 18.4704Z" />
<path d="M12.58 5.98L13.17 7.15999C13.25 7.31999 13.46 7.48 13.65 7.51L14.72 7.68999C15.4 7.79999 15.56 8.3 15.07 8.79L14.24 9.61998C14.1 9.75998 14.02 10.03 14.07 10.23L14.31 11.26C14.5 12.07 14.07 12.39 13.35 11.96L12.35 11.37C12.17 11.26 11.87 11.26 11.69 11.37L10.69 11.96C9.96997 12.38 9.53997 12.07 9.72997 11.26L9.96997 10.23C10.01 10.04 9.93997 9.75998 9.79997 9.61998L8.96997 8.79C8.47997 8.3 8.63997 7.80999 9.31997 7.68999L10.39 7.51C10.57 7.48 10.78 7.31999 10.86 7.15999L11.45 5.98C11.74 5.34 12.26 5.34 12.58 5.98Z" />
</svg>

<?xml version="1.0" encoding="UTF-8"?>
<svg width="24" height="24" viewBox="0 0 24 24" xmlns="http://www.w3.org/2000/svg">
 <path d="m19 9c0 1.45-0.43 2.78-1.17 3.89-1.08 1.6-2.79 2.73-4.78 3.02-0.34 0.06-0.69 0.09-1.05 0.09s-0.71-0.03-1.05-0.09c-1.99-0.29-3.7-1.42-4.78-3.02-0.74-1.11-1.17-2.44-1.17-3.89 0-3.87 3.13-7 7-7s7 3.13 7 7z" opacity=".4"/>
 <path d="m21.25 18.47-1.65 0.39c-0.37 0.09-0.66 0.37-0.74 0.74l-0.35 1.47c-0.19 0.8-1.21 1.04-1.74 0.41l-4.77-5.48-4.77 5.49c-0.53 0.63-1.55 0.39-1.74-0.41l-0.35-1.47c-0.09-0.37-0.38-0.66-0.74-0.74l-1.65-0.39c-0.76-0.18-1.03-1.13-0.48-1.68l3.9-3.9c1.08 1.6 2.79 2.73 4.78 3.02 0.34 0.06 0.69 0.09 1.05 0.09s0.71-0.03 1.05-0.09c1.99-0.29 3.7-1.42 4.78-3.02l3.9 3.9c0.55 0.54 0.28 1.49-0.48 1.67z"/>
 <path d="m12.58 5.98 0.59 1.18c0.08 0.16 0.29 0.32001 0.48 0.35001l1.07 0.17999c0.68 0.11 0.84 0.61001 0.35 1.1l-0.83 0.82998c-0.14 0.14-0.22 0.41002-0.17 0.61002l0.24 1.03c0.19 0.81-0.24 1.13-0.96 0.7l-1-0.59c-0.18-0.11-0.48-0.11-0.66 0l-1 0.59c-0.72003 0.42-1.15 0.11-0.96003-0.7l0.24-1.03c0.04003-0.19-0.03-0.47002-0.17-0.61002l-0.83-0.82998c-0.49-0.49-0.33-0.98001 0.35-1.1l1.07-0.17999c0.18-0.03 0.39-0.19001 0.47-0.35001l0.59-1.18c0.29-0.64 0.81-0.64 1.13 0z"/>
</svg>
